modules/hawcons-stroke/icons/icon-25-one-finger-tap-hold.svg

<?xml version="1.0" encoding="UTF-8" standalone="no"?>
<svg width="32px" height="32px" viewBox="0 0 32 32" version="1.1" xmlns="http://www.w3.org/2000/svg" xmlns:xlink="http://www.w3.org/1999/xlink" xmlns:sketch="http://www.bohemiancoding.com/sketch/ns">
    <!-- Generator: Sketch 3.0.3 (7891) - http://www.bohemiancoding.com/sketch -->
    <title>icon 25 one finger tap hold</title>
    <desc>Created with Sketch.</desc>
    <defs></defs>
    <g id="Page-1" stroke="none" stroke-width="1" fill="none" fill-rule="evenodd" sketch:type="MSPage">
        <g id="icon-25-one-finger-tap-hold" sketch:type="MSArtboardGroup" fill="#929292">
            <path d="M23.8744203,6 L23.1244203,6 L23.1244203,2.03544442 C21.4282732,2.27805923 20.1244203,3.73676395 20.1244203,5.5 C20.1244203,7.43299672 21.6914236,9 23.6244203,9 C25.5574171,9 27.1244203,7.43299672 27.1244203,5.5 C27.1244203,3.73676395 25.8205675,2.27805923 24.1244203,2.03544442 L24.1244203,2.03544442 L24.1244203,5 L26.1244203,5 L26.1244203,6 L23.8744203,6 L23.8744203,6 Z M19.6244203,31.0000003 C16.5115051,31.0000003 13.2262274,29.5474856 10.9652407,25.4282229 C7.70175208,19.4825159 3.52827319,15.5832077 5.51553361,13.5959473 C6.9371827,12.1742982 9.16926196,13.5381668 11.1244203,15.3667868 L11.1244203,6.50840855 C11.1244203,5.11541748 12.2437085,4 13.6244203,4 C15.0147583,4 16.1244203,5.12305276 16.1244203,6.50840855 L16.1244203,11.4983653 C16.5422506,11.1853054 17.0616174,11 17.6244203,11 C18.7069384,11 19.6193054,11.6774672 19.9702378,12.6281239 C20.4110134,12.2379894 20.9901312,12 21.6244203,12 C23.0147583,12 24.1244203,13.1182256 24.1244203,14.4976267 C24.5422506,14.1985158 25.0616174,14.014191 25.6244203,14.014191 C27.0147583,14.014191 28.1244203,15.1335355 28.1244203,16.5143168 L28.1244203,22.5 C28.1244203,27.1944206 24.3188409,31 19.6244203,31.0000003 L19.6244203,31.0000003 L19.6244203,31.0000003 Z M19.6231595,29.9999999 C23.7659915,30 27.1244203,26.4147752 27.1244203,22.5 C27.1244203,22.5 27.1244203,24.8132437 27.1244203,22.5 L27.1244203,18.7491622 L27.1244203,16.5016756 C27.1244203,15.6723231 26.4586231,15 25.6244203,15 C24.7959932,15 24.1244203,15.6711894 24.1244203,16.5016756 L24.1244203,17 L23.1244203,17 L23.1244203,14.5064385 C23.1244203,13.6744555 22.4586231,13 21.6244203,13 C20.7959932,13 20.1244203,13.6715406 20.1244203,14.5064385 L20.1244203,16 L19.1244203,16 L19.1244203,13.5064385 C19.1244203,12.6744555 18.4586231,12 17.6244203,12 C16.7959932,12 16.1244203,12.6715406 16.1244203,13.5064385 L16.1244203,17 L15.1244203,17 L15.1244203,6.50524116 C15.1244203,5.67391942 14.4586231,5 13.6244203,5 C12.7959932,5 12.1244203,5.66712976 12.1244203,6.50524116 L12.1244203,17.7999878 C10.0660207,15.599567 7.35605012,13.1791206 6.24545305,14.2957153 C5.15828327,15.3887562 7.95978233,18.4007216 11.8717958,24.9830936 C13.6344162,27.9488875 15.8647052,29.9995418 19.6231595,29.9999999 L19.6231595,29.9999999 L19.6231595,29.9999999 Z M23.6244203,10 C26.1097018,10 28.1244203,7.9852815 28.1244203,5.5 C28.1244203,3.0147185 26.1097018,1 23.6244203,1 C21.1391388,1 19.1244203,3.0147185 19.1244203,5.5 C19.1244203,7.9852815 21.1391388,10 23.6244203,10 L23.6244203,10 L23.6244203,10 Z" id="one-finger-tap-hold" sketch:type="MSShapeGroup"></path>
        </g>
    </g>
</svg>

<svg width="32" height="32" viewBox="0 0 32 32" xmlns="http://www.w3.org/2000/svg"><path d="M23.874 6h-.75V2.035a3.5 3.5 0 1 0 1 0V5h2v1h-2.25zm-4.25 25c-3.112 0-6.398-1.453-8.659-5.572-3.263-5.945-7.437-9.845-5.45-11.832 1.422-1.422 3.654-.058 5.61 1.77V6.509a2.5 2.5 0 1 1 5 0v4.99a2.493 2.493 0 0 1 1.5-.498c1.082 0 1.994.677 2.345 1.628.441-.39 1.02-.628 1.654-.628 1.39 0 2.5 1.118 2.5 2.498.418-.3.938-.484 1.5-.484 1.39 0 2.5 1.12 2.5 2.5V22.5a8.5 8.5 0 0 1-8.5 8.5zm0-1c4.142 0 7.5-3.585 7.5-7.5 0 0 0 2.313 0 0v-5.998a1.5 1.5 0 0 0-3 0V17h-1v-2.494a1.5 1.5 0 1 0-3 0V16h-1v-2.494a1.5 1.5 0 1 0-3 0V17h-1V6.505a1.499 1.499 0 1 0-3 0V17.8c-2.058-2.2-4.768-4.62-5.879-3.504-1.087 1.093 1.715 4.105 5.627 10.687C13.634 27.95 15.865 30 19.623 30zm4-20a4.5 4.5 0 1 0 0-9 4.5 4.5 0 0 0 0 9z" fill="#929292" fill-rule="evenodd"/></svg>
